public/avatar/shoe/118.svg

<svg xmlns:xlink="http://www.w3.org/1999/xlink" height="38.3" width="36.05" xmlns="http://www.w3.org/2000/svg"><use height="17.1" transform="translate(8.25 11.1)" width="24.1" xlink:href="#a"/><defs><g id="a" fill-rule="evenodd"><path d="m8.5 5.7.05.5v.75H8.5v.5l-.05.25v.15l-.05.05v.2L6.95 9.2l-2 1.15-.65.25h-.1l-.05.05-.2.05-.3.2-3 1-1.7.5-3.9.7-3.55.25-3.2-.25-2.8-.7-.55-.35-.25-.35-.05-.15-.2-1.1v-.9q-.05-2 1.55-3.2l1.7-.75L-6 1.35q.05-1 .7-2.15 1.2-2.25 3.85-2.65 5-1 6.5 1.4L8.5 5.2v.5" transform="translate(15.55 3.75)"/><path d="M7.95 5.7q.2 1-.25 1.7-1.8 1.95-8.05 3.75-7.9 2.2-14 .3l-.35-1.25q6.75 1.45 14.6-.8 5.8-1.75 8.05-3.7" fill="#fff" transform="translate(15.55 3.75)"/><path d="M-14.7 8.4q1.1-1.75 2.9-2.1 1.75-.4 2.5 4.6l-3.8.05q-1.4 0-1.6-.6V8.4" fill="#fff" transform="translate(15.55 3.75)"/><path d="M-2.25-1.2q.15.8-.85 3.5l-2.25 2.3q-2.35 1.85-4.4 2.8-.45-1.55-1.35-1.55 4.85-3.2 5.9-4.4.15-2.9.95-2.65h2" fill="#fff" transform="translate(15.55 3.75)"/><path d="M.7-.9q.7-.45 2.5-.55 2.05-.2 2.1.65-3.8-.1-4.1 2.45Q1 3.1.15 4.05q-1.1 1.3-.85 1.6Q.2 6.7 2.45 3.4q1.6-1 4.3-1-2.3.65-2.75 2.65l-.7 1.3q-.65.5-2.35 1.1l3.2-.5 2.9-.85q-5.5 4.5-15.8 4.6-.55-1.1-.7-3.15 4.65-1.75 6.7-4.1L-1.3 1.6Q-.75-.05.7-.9" fill="#9a0000" transform="translate(15.55 3.75)"/><path d="m3.15-.85-.6.2Q.4-.05.15 1.9-.1 3.3-1.6 5.35q-.75 2.45 2.05.8L1.9 4.7q.8-1 1.6-1.1l-.7 1.35-1.15 1.1Q-.55 7.15-.3 8.1l3.8-.5q-4.25 2.55-11.45 2.75-.9-1.55-.75-2.75l3.5-1.65Q-2.05 4.1-1.55 3.1L.25.15q.65-.6 2.9-1" fill="#ff6700" transform="translate(15.55 3.75)"/><path d="M-7.55 7.8q3.1-.75 5.55-3-.3 1.8-1.1 2.8l2-.15-1.25.9 2.25.3-3.15.5-3.55.55q-1.3-.55-.75-1.9" fill="#ffcd00" transform="translate(15.55 3.75)"/></g></defs></svg>

<?xml version="1.0" encoding="UTF-8" standalone="no"?>
<svg xmlns:xlink="http://www.w3.org/1999/xlink" height="38.3px" width="36.05px" xmlns="http://www.w3.org/2000/svg">
  <g transform="matrix(1.0, 0.0, 0.0, 1.0, 23.8, 14.85)">
    <use height="17.1" transform="matrix(1.0, 0.0, 0.0, 1.0, -15.55, -3.75)" width="24.1" xlink:href="#shape0"/>
  </g>
  <defs>
    <g id="shape0" transform="matrix(1.0, 0.0, 0.0, 1.0, 15.55, 3.75)">
      <path d="M8.5 5.7 L8.55 6.2 8.55 6.95 8.5 6.95 8.5 7.45 8.45 7.7 8.45 7.85 8.4 7.9 8.4 8.1 6.95 9.2 4.95 10.35 4.3 10.6 4.2 10.6 4.15 10.65 3.95 10.7 3.65 10.9 0.65 11.9 -1.05 12.4 -4.95 13.1 -8.5 13.35 -11.7 13.1 -14.5 12.4 -15.05 12.05 -15.3 11.7 -15.35 11.55 -15.55 10.45 -15.55 9.55 Q-15.6 7.55 -14.0 6.35 L-12.3 5.6 -6.0 1.35 Q-5.95 0.35 -5.3 -0.8 -4.1 -3.05 -1.45 -3.45 3.55 -4.45 5.05 -2.05 L8.5 5.2 8.5 5.7" fill="#000000" fill-rule="evenodd" stroke="none"/>
      <path d="M7.95 5.7 Q8.15 6.7 7.7 7.4 5.9 9.35 -0.35 11.15 -8.25 13.35 -14.35 11.45 L-14.7 10.2 Q-7.95 11.65 -0.1 9.4 5.7 7.65 7.95 5.7" fill="#ffffff" fill-rule="evenodd" stroke="none"/>
      <path d="M-14.7 8.4 Q-13.6 6.65 -11.8 6.3 -10.05 5.9 -9.3 10.9 L-13.1 10.95 Q-14.5 10.95 -14.7 10.35 L-14.7 8.4" fill="#ffffff" fill-rule="evenodd" stroke="none"/>
      <path d="M-2.25 -1.2 Q-2.1 -0.4 -3.1 2.3 L-5.35 4.6 Q-7.7 6.45 -9.75 7.4 -10.2 5.85 -11.1 5.85 -6.25 2.65 -5.2 1.45 -5.05 -1.45 -4.25 -1.2 L-2.25 -1.2" fill="#ffffff" fill-rule="evenodd" stroke="none"/>
      <path d="M0.7 -0.9 Q1.4 -1.35 3.2 -1.45 5.25 -1.65 5.3 -0.8 1.5 -0.9 1.2 1.65 1.0 3.1 0.15 4.05 -0.95 5.35 -0.7 5.65 0.2 6.7 2.45 3.4 4.05 2.4 6.75 2.4 4.45 3.05 4.0 5.05 L3.3 6.35 Q2.65 6.85 0.95 7.45 L4.15 6.95 7.05 6.1 Q1.55 10.6 -8.75 10.7 -9.3 9.6 -9.45 7.55 -4.8 5.8 -2.75 3.45 L-1.3 1.6 Q-0.75 -0.05 0.7 -0.9" fill="#9a0000" fill-rule="evenodd" stroke="none"/>
      <path d="M3.15 -0.85 L2.55 -0.65 Q0.4 -0.05 0.15 1.9 -0.1 3.3 -1.6 5.35 -2.35 7.8 0.45 6.15 L1.9 4.7 Q2.7 3.7 3.5 3.6 L2.8 4.95 1.65 6.05 Q-0.55 7.15 -0.3 8.1 L3.5 7.6 Q-0.75 10.15 -7.95 10.35 -8.85 8.8 -8.7 7.6 L-5.2 5.95 Q-2.05 4.1 -1.55 3.1 L0.25 0.15 Q0.9 -0.45 3.15 -0.85" fill="#ff6700" fill-rule="evenodd" stroke="none"/>
      <path d="M-7.55 7.8 Q-4.45 7.05 -2.0 4.8 -2.3 6.6 -3.1 7.6 L-1.1 7.45 -2.35 8.35 -0.1 8.65 -3.25 9.15 -6.8 9.7 Q-8.1 9.15 -7.55 7.8" fill="#ffcd00" fill-rule="evenodd" stroke="none"/>
    </g>
  </defs>
</svg>
